X: 598
T: Dök Dideden
C: Tab`î Mustafa Efendi
O: Turkey
F: http://compmusic.upf.edu/node/140
N: huseyni--yuruksemai--yuruksemai--dok_dideden--tabi_mustafa_efendi
N: makam= huseyni
N: form= yuruksemai
N: usul= yuruksemai = 6/8
M: 6/8
L: 1/16
K: C _2/4B ^3/4f  
Q: 1/4=96
%%MIDI tuningsystem comma53
d4d4 e4e4 e8  | e6^f2 g4f2e2 e6z2  | \
w:   |   | 
e2=f2e4 d4e4 e2d2d2c2  | 
w:   | 
c4_1/4B4 c4d4 e2=f2e2d2  | d8 a2g2g2^f2 f6e2  | \
w:   |   | 
e8 e3dc2d2 e6z2  | 
w:   | 
d4d4 e4e4 e8  | e6^f2 g4f2e2 e6z2  | \
w:   |   | 
e2=f2e4 d4e4 e2d2d2c2  | 
w:   | 
d8 d4d2c2 d6z2  | c4d4 d4c4 d8  | e4c8d4 _1/4B6A2  | \
w:   |   |   | 
_1/4B2c2B4 G4A4 B6A2  | 
w:   | 
G8 G3^FE2F2 G6z2  | d4d4 e4e4 e8  | e6^f2 g4f2e2 e6z2  | \
w:   |   |   | 
e2=f2e4 d4e4 e2d2d2c2  | 
w:   | 
c4_1/4B4 c4d4 e2=f2e2d2  | d8 a2g2g2^f2 f6e2  | \
w:   |   | 
e8 e3dc2d2 e6z2  | 
w:   | 
d4d4 e4e4 e8  | e6^f2 g4f2e2 e6z2  | \
w:   |   | 
e2=f2e4 d4e4 e2d2d2c2  | 
w:   | 
d8 d4d2c2 d6z2  | c4d4 d4c4 d8  | e4c8d4 _1/4B6A2  | \
w:   |   |   | 
_1/4B2c2B4 G4A4 B6A2  | 
w:   | 
G8 G3^FE2F2 G6z2  | d4d4 e4e4 e8  | e6^f2 g4f2e2 e6d2  | \
w:   |   |   | 
d8 c4_1/4B4 A8  | 
w:   | 
a4g4 =f4e4 d4e4  | c2d2c4 _1/4B4A4 B4c4  | \
w:   |   | 
A8 A2G2^F2G2 A6z2  | d4^f4 f4^e4 f4f4  | 
w:   |   | 
^f8 g4^e4 f8  | g4^f4 ^e4d4 ^c8  | d4^c4 d4^e4 ^f8  | \
w:   |   |   | 
g8 ^f4^e4 a2g2g2f2  | 
w:   | 
^f8 f3^ed2e2 f6z2  | ^f4g4 g4g2f2 g8  | \
w:   |   | 
a4g4 ^f4e4 d8  | e2=f2e4 d4c4 e6d2  | 
w:   |   | 
d8 d4d2c2 d6z2  | d4d4 e4e4 e8  | e6^f2 g4f2e2 e6d2  | \
w:   |   |   | 
d8 c4_1/4B4 A8  | 
w:   | 
a4g4 =f4e4 d4e4  | c2d2c4 _1/4B4A4 B4c4  | \
w:   |   | 
A8 A2G2^F2G2 A6z2  | |


